X:315
T: Black Rock
N: O'Farrell's Pocket Companion v.4 (Sky ed. p.140)
N: "Irish"
M: 4/4
R: reel
L: 1/8
Q: 350
K: G
G/A/| B2AG E2 D2|GBdB eAAB| cBAG E2D2| GBdA BGG :|
c| Bdde/f/ gBdB| eBgB eAAc| Bdde/f/ gBdB| ef/g/ dc BGG>c|
Bdde/f/ gBdB| eBgB eAAc| B2AG E2 D2| GBdA BGG ||
